melody-of-light/img/icons/icomoon/download.svg

<svg width="22" height="22" viewBox="0 0 22 22" fill="none" xmlns="http://www.w3.org/2000/svg">
<path fill-rule="evenodd" clip-rule="evenodd" d="M12.834 1.875C13.3172 1.875 13.709 2.26675 13.709 2.75V6.41667C13.709 6.42772 13.7134 6.43831 13.7212 6.44613C13.729 6.45394 13.7396 6.45833 13.7507 6.45833H17.4173C17.9006 6.45833 18.2923 6.85008 18.2923 7.33333C18.2923 7.81658 17.9006 8.20833 17.4173 8.20833H13.7507C13.2755 8.20833 12.8198 8.01957 12.4838 7.68357C12.1477 7.34756 11.959 6.89185 11.959 6.41667V2.75C11.959 2.26675 12.3507 1.875 12.834 1.875Z" fill="white"/>
<path fill-rule="evenodd" clip-rule="evenodd" d="M6.41732 3.625C6.16315 3.625 5.9194 3.72597 5.73967 3.90569C5.55995 4.08541 5.45898 4.32917 5.45898 4.58333V17.4167C5.45898 17.6708 5.55995 17.9146 5.73967 18.0943C5.9194 18.274 6.16315 18.375 6.41732 18.375H15.584C15.8382 18.375 16.0819 18.274 16.2616 18.0943C16.4414 17.9146 16.5423 17.6708 16.5423 17.4167V7.69577L12.4715 3.625H6.41732ZM4.50224 2.66825C5.01015 2.16034 5.69902 1.875 6.41732 1.875H12.834C13.066 1.875 13.2886 1.96719 13.4527 2.13128L18.036 6.71461C18.2001 6.87871 18.2923 7.10127 18.2923 7.33333V17.4167C18.2923 18.135 18.007 18.8238 17.4991 19.3317C16.9912 19.8397 16.3023 20.125 15.584 20.125H6.41732C5.69902 20.125 5.01015 19.8397 4.50224 19.3317C3.99433 18.8238 3.70898 18.135 3.70898 17.4167V4.58333C3.70898 3.86504 3.99433 3.17616 4.50224 2.66825Z" fill="white"/>
<path fill-rule="evenodd" clip-rule="evenodd" d="M11 9.20825C11.4832 9.20825 11.875 9.6 11.875 10.0833V15.5833C11.875 16.0665 11.4832 16.4583 11 16.4583C10.5168 16.4583 10.125 16.0665 10.125 15.5833V10.0833C10.125 9.6 10.5168 9.20825 11 9.20825Z" fill="white"/>
<path fill-rule="evenodd" clip-rule="evenodd" d="M7.63128 12.2145C7.97299 11.8728 8.52701 11.8728 8.86872 12.2145L11 14.3458L13.1313 12.2145C13.473 11.8728 14.027 11.8728 14.3687 12.2145C14.7104 12.5562 14.7104 13.1103 14.3687 13.452L11.6187 16.202C11.277 16.5437 10.723 16.5437 10.3813 16.202L7.63128 13.452C7.28957 13.1103 7.28957 12.5562 7.63128 12.2145Z" fill="white"/>
</svg>

<svg width="22" height="22" fill="none" xmlns="http://www.w3.org/2000/svg"><path fill-rule="evenodd" clip-rule="evenodd" d="M12.834 1.875c.483 0 .875.392.875.875v3.667a.042.042 0 00.042.041h3.666a.875.875 0 110 1.75h-3.666a1.792 1.792 0 01-1.792-1.791V2.75c0-.483.392-.875.875-.875z" fill="#fff"/><path fill-rule="evenodd" clip-rule="evenodd" d="M6.417 3.625a.958.958 0 00-.958.958v12.834a.958.958 0 00.958.958h9.167a.958.958 0 00.958-.958V7.696l-4.07-4.071H6.417zm-1.915-.957a2.708 2.708 0 011.915-.793h6.417c.232 0 .455.092.619.256l4.583 4.584a.875.875 0 01.256.618v10.084a2.708 2.708 0 01-2.708 2.708H6.417a2.708 2.708 0 01-2.708-2.708V4.583c0-.718.285-1.407.793-1.915z" fill="#fff"/><path fill-rule="evenodd" clip-rule="evenodd" d="M11 9.208c.483 0 .875.392.875.875v5.5a.875.875 0 01-1.75 0v-5.5c0-.483.392-.875.875-.875z" fill="#fff"/><path fill-rule="evenodd" clip-rule="evenodd" d="M7.631 12.214a.875.875 0 011.238 0L11 14.346l2.131-2.132a.875.875 0 111.238 1.238l-2.75 2.75a.875.875 0 01-1.238 0l-2.75-2.75a.875.875 0 010-1.238z" fill="#fff"/></svg>
